X: 167
M: 6/4
L: 1/4
K: Am
E |\
afd gec | BeA ^GBE | Aed c2B | c3- c2 :|
|: e/f/ |\
gec c'ge | fae d2c | dBG gec | dfa d>cB |\

